32x32/apps/im.srain.Srain.svg

<svg height="32" width="32" xmlns="http://www.w3.org/2000/svg"><path d="m15.892 3-.001.003a13.968 13.968 0 0 0 -13.891 13.997c0 7.756 6.244 14 14 14a13.967 13.967 0 0 0 13.974-13.168l.026-.024v-12.008c0-1.551-1.249-2.8-2.8-2.8z" opacity=".2"/><path d="m15.892 2-.001.003a13.968 13.968 0 0 0 -13.891 13.997c0 7.756 6.244 14 14 14a13.967 13.967 0 0 0 13.974-13.168l.026-.024v-12.008c0-1.551-1.249-2.8-2.8-2.8z" fill="#63a4c7"/><path d="m18 9-2.42 16h2.022l2.42-16zm-3.422 0-2.42 16h2.022l2.42-16z" opacity=".2"/><path d="m18 8-2.42 16h2.022l2.42-16zm-3.422 0-2.42 16h2.022l2.42-16z" fill="#f4f4f7"/><path d="m11.666 13-.3 2h9.806l.303-2z" opacity=".2"/><path d="m11.666 12-.3 2h9.806l.303-2z" fill="#f4f4f7"/><path d="m10.91 18-.303 2h9.809l.303-2z" opacity=".2"/><g fill="#f4f4f7"><path d="m10.91 17-.303 2h9.809l.303-2z"/><path d="m15.893 2-.002.002a13.968 13.968 0 0 0 -13.891 13.998c0 .17.02.334.025.502a13.956 13.956 0 0 1 13.866-13.5l.002-.002h11.306c1.551 0 2.801 1.25 2.801 2.8v-1c0-1.55-1.25-2.8-2.8-2.8h-11.308z" opacity=".2"/></g></svg>

<svg xmlns="http://www.w3.org/2000/svg" width="32" height="32" version="1"><path style="opacity:.2" d="m15.892 3-.001.003A13.968 13.968 0 0 0 2 17c0 7.756 6.244 14 14 14a13.967 13.967 0 0 0 13.974-13.168l.026-.024V5.8C30 4.249 28.751 3 27.2 3H15.892z"/><path style="fill:#63a4c7" d="m15.892 2-.001.003A13.968 13.968 0 0 0 2 16c0 7.756 6.244 14 14 14a13.967 13.967 0 0 0 13.974-13.168l.026-.024V4.8C30 3.249 28.751 2 27.2 2H15.892z"/><path style="opacity:.2" d="m18 9-2.42 16h2.022l2.42-16zM14.578 9l-2.42 16h2.022L16.6 9z"/><path style="fill:#f4f4f7" d="m18 8-2.42 16h2.022l2.42-16H18zM14.578 8l-2.42 16h2.022L16.6 8h-2.022z"/><path style="opacity:.2" d="m11.666 13-.3 2h9.806l.303-2z"/><path style="fill:#f4f4f7" d="m11.666 12-.3 2h9.806l.303-2z"/><path style="opacity:.2" d="m10.91 18-.303 2h9.809l.303-2z"/><path style="fill:#f4f4f7" d="m10.91 17-.303 2h9.809l.303-2z"/><path style="fill:#f4f4f7;opacity:.2" d="m15.893 2-.002.002A13.968 13.968 0 0 0 2 16c0 .17.02.334.025.502a13.956 13.956 0 0 1 13.866-13.5L15.893 3h11.306C28.75 3 30 4.25 30 5.8v-1C30 3.25 28.75 2 27.2 2H15.892z"/></svg>
